X: 4
T: BARNDANCE: If There Weren't Any Women
T: If There Weren't Any Women in the World
C: C: Trad.; S: Various
C: Set Leaders: Mars, Tania
Z: [Unedited]; glauber at The Session
N: https://thesession.org/members/26966/sets/94259
R: Barndance
M: 4/4
L: 1/8
Q: 1/2=86
K: Gmaj
Bc|:de dB GA BG|EA GE D3 A|BG Bd ge dB|A2 AG A2 Bc|
de dB GA BG|EA GE D3 A|B d2 B AG AB|1 G2 GF G2 Bc:|2 G2 GF GGBd||
|:e2 ef g2 gf|ed dB d2 (3Bcd|ed Bd ge dB|A2 AG A2 Bc|
de dB GA BG|EA GE D3 A|B d2 B AG AB|1 G2 GF GABd:|2 G2 GF G2 Bc||

